!!!!SEGMENT: pl-kk--kk-i-356--010_gabrieli-andrea--rex-gloria.krn
!!!cenid: 17xx:1954
!!!COM: Gabrieli, Andrea
!!!COM-rismid: pe30001185
!!!CDT: 1532/1533-1585/08/30
!!!CNT: Italian
!!!OTL: Rex Gloria
!!!PDT:
!!!AGN: Sacred
!!!SMS-siglum: PL-Kk
!!!SMS-shelfmark: Kk.I.356
!!!SMS-shelfwork: 010 W
!!!SMS-variant:
!!!SMS-altvar:
!!!NIFC-rismid: 1001142092
!!!URL-scan: http://repozytorium.nifc.pl/skany/pl-kk-nut--i-356
!!!ONB-nifc: UWAGA: tylko partia basu.
**kern	**text
*I"Basso	*
*I'B.	*
*clefF4	*
*k[]	*
*M2/1	*
=1	=1
0G\	Rex
=2	=2
1E\	Glo-
1.F\	-ri-
=3	=3
.	.
*2\right	*
2F\	-ae
2E\	Do-
1E\	-mi-
=4	=4
.	.
2E\	-ne
2C/	vir-
2C/	-tu-
=5	=5
2.FF/	.
4GG/	.
2.AA/	.
4BB/	.
=6	=6
1C/	.
!LO:TX:t=P:problem:kreska pseudotaktowa	!
1GG/	-tum
=7	=7
1r	.
0AA/	o
.	.
1BB/	Rex
=8	=8
1.D\	Glo-
2D/	-ri-
=9	=9
2C/	-ae
1E\	Do-
2E\	-mi-
=10	=10
2D\	-ne
2D\	vir-
!!LO:LB:g=original
1D\	-tu-
=11	=11
1GG/	-tum
2.C/	Do-
4C/	-mi-
=12	=12
2GG/	-ne
2GG/	vir-
0AA/	-tu-
=13	=13
.	.
!LO:TX:t=P:problem:kreska pseudotaktowa	!
1D\	-t(um).
=14	=14
0r	.
=15	=15
2r	.
2GG/	Qui
2C/	tri-
2C/	-um-
=16	=16
2C/	-pha-
2GG/	-tor
2AA/	ho-
2AA/	-di-
=17	=17
!LO:TX:t=P:problem:kreska pseudotaktowa	!
1C/	-e
0r	.
=18	=18
.	.
1GG/	Qui
=19	=19
2G\	tri-
2G\	-um-
2G\	-pha-
2D\	-tor
=20	=20
2E\	ho-
2E\	-di-
1G\	-e
=21	=21
1C/	Sup-
!LO:TX:t=P:problem:takt niewidoczny	!
2BB/	-(er)
!!LO:PB:g=original
2ryy	.
2C/	om-
=22	=22
2C/	-nes
2D/	Cae-
2E/	-los
1C/	as-
=23	=23
2GG/	-cen-
2.C/	-di-
.	.
8BB/L	.
8AA/J	.
=24	=24
4BB/	.
4GG/	.
1C/	.
2D\	.
=25	=25
!LO:TX:t=P:problem:kreska pseudotaktowa	!
1GG/	-sti
00r	.
=26	=26
.	.
=27	=27
.	.
1C/	me
=28	=28
2C/	de-
2D/	-re-
1GG/	-lin-
=29	=29
!LO:TX:t=P:problem:kreska pseudotaktowa	!
1C/	-quas
1C/	me
=30	=30
2C/	de-
2D/	-re-
1GG/	-lin-
=31	=31
2C/	-quas
2C/	nos
1.BB-X/	or-
=32	=32
.	.
2C/	-pha-
!LO:TX:t=P:problem:kreska pseudotaktowa	!
1C/	-nos
=33	=33
00r	.
=34	=34
0r	.
=35	=35
2r	.
2G\	sed
1G\	mit-
=36	=36
2F#X\	-te
2G\	p(ro)-
2A\	-miſ-
2G\	-s(um)
=37	=37
1E\	Pa-
2D/	-tris
2BB/	in
=38	=38
!LO:TX:t=P:problem:kreska pseudotaktowa	!
1C/	nos
!!LO:LB:g=original
0r	.
=39	=39
.	.
1r	.
=40	=40
2r	.
2D/	sed
1D\	mit-
=41	=41
2C#X/	-te
4D/	pro-
4C#/	.
4BB/	.
4AA/	.
2GG/	-miſ-
=42	=42
2AA/	-sum
2D/	Pa-
1C/	.
=43	=43
!LO:TX:t=P:problem:kreska pseudotaktowa	!
1GG/	-tris
1r	.
=44	=44
2r	.
2D/	sed
1D\	mit-
=45	=45
2C#X/	-te
2D/	(pro)-
2AA/	-miſ-
2AA/	-su(m)
=46	=46
1D\	Pa-
2GG/	-tris
2GG/	in
=47	=47
!LO:TX:t=P:problem:kreska pseudotaktowa	!
1AA/	nos
1.D\	Spi-
=48	=48
.	.
2D/	-ri-
1D\	-tu(m)
=49	=49
2E\	ve-
2G\	-ri-
1D\	-ta-
=50	=50
!LO:TX:t=P:problem:kreska pseudotaktowa	!
1GG/	-tis
2.C/	Spi-
4C/	-ri-
=51	=51
1D\	-tu(m)
2C/	ve-
2BB/	-ri-
=52	=52
1AA/	-ta-
!LO:TX:t=P:problem:kreska pseudotaktowa	!
0GG/	-tis
=53	=53
!LO:TX:t=P:problem:kreska pseudotaktowa	!
00r	.
=54	=54
.	.
=55	=55
1.AA/	Spi-
2AA/	-ri-
=56	=56
1D\	-tu(m)
2GG/	ve-
2D\	-ri-
=57	=57
2E\	-ta-
2C/	.
!LO:TX:t=P:problem:kreska pseudotaktowa	!
1D\	.
=58	=58
*M3/1	*
0.GG/	-tis
=59	=59
!LO:TX:a:t=1.	!
0.r	.
=60	=60
1G\	al-
1G\	-le-
!LO:TX:t=P:problem:kreska pseudotaktowa	!
1G\	-lu-
=61	=61
!LO:TX:t=P:problem:kreska pseudotaktowa	!
0.C/	-ia
=62	=62
*	*ij
1F\	al-
1F\	-le-
!LO:TX:t=P:problem:kreska pseudotaktowa	!
1F\	-lu-
=63	=63
!LO:TX:t=P:problem:kreska pseudotaktowa	!
0.D\	-ia
=64	=64
1GG/	al-
1GG/	-le-
!LO:TX:t=P:problem:kreska pseudotaktowa	!
1GG/	-lu-
=65	=65
1C/	-ia
1AA/	al-
!LO:TX:t=P:problem:kreska pseudotaktowa	!
1C/	-le-
=66	=66
0GG/	-lu-
!LO:TX:t=P:problem:kreska pseudotaktowa	!
1D\	-i-
=67	=67
!LO:TX:t=P:problem:kreska pseudotaktowa	!
0.GG/	-a
=68	=68
0.r	.
=69	=69
1G\	al-
1G\	-le-
1G\	-lu-
!!LO:LB:g=original
=70	=70
!LO:TX:t=P:problem:kreska pseudotaktowa	!
0.C/	-ia
=71	=71
1F\	al-
1F\	-le-
!LO:TX:t=P:problem:kreska pseudotaktowa	!
1F\	-lu-
=72	=72
!LO:TX:t=P:problem:kreska pseudotaktowa	!
0.D\	-ia
=73	=73
1GG/	al-
1GG/	-le-
!LO:TX:t=P:problem:kreska pseudotaktowa	!
1GG/	-lu-
=74	=74
1C/	-ia
1AA/	al-
!LO:TX:t=P:problem:kreska pseudotaktowa	!
1C/	-le-
=75	=75
1GG/	-lu-
!LO:TX:t=P:problem:kreska pseudotaktowa	!
0D\	-ia
=76	=76
0GG/	al-
!LO:TX:t=P:problem:kreska pseudotaktowa	!
1C/	-le-
=77	=77
1BB/	-lu-
!LO:TX:t=P:problem:kreska pseudotaktowa	!
0C/	-i-
=78	=78
00GG/;	-a
==	==
*-	*-
!!!EED: Leszek Kubiak
!!!EST: 2021-03-05
!!!ENC: Tomasz Grochalski
!!!END: 2021-02-06
